X: 35397
T: Rossinver, The
R: reel
M: 4/4
K: Dmajor
ABde f2ef|gfed B2AG|FAde ~f3b|afeg fedB|
ABde f2ef|gfed B2AG|FAde ~f3b|afeg fddf||
af~f2 bggb|agfd efdf|af~f2 bggb|agfe d3f|
af~f2 bggb|agfd efdB|ABde f2ef|gfed B2AG||

